X:1
T:Winterreise, D.911
T:Täuschung
T:Winterreise, D.911
T:19. Täuschung
T:Franz Schubert
T:Wilhelm Müller
T:OpenScore (CC0)
T:OpenScore (CC0)
T:OpenScore (CC0)
C:Franz Schubert
Z:Wilhelm Müller
Z:OpenScore (CC0)
%%score 1 { 2 | 3 }
L:1/8
Q:1/4=80
M:6/8
K:A
V:1 treble nm="Singstimme\nVoice"
V:2 treble nm="Pianoforte"
V:3 bass 
V:1
"^Etwas geschwind." z | z6 | z6 | z6 | z6 | z2 z z2 c | c3- c2 A | E2 E{F} E^DE | (F3 E2) z | %9
w: |||||Ein|Licht _ tanzt|freund- lich vor * mir|her, _|
 z2 z z2 ^E | F3- F2 G |{AB} AG A c2 B | A2 z4 | z2 z z2 c | c3- c2 A | E2 E{F} E^D E | (F3 E2) z | %17
w: ich|folg' _ ihm|nach _ die Kreuz und|Quer;|ich|folg' _ ihm|gern, und seh's _ ihm|an, _|
 z2 z z2 ^E | F3- F2 G | Ac A{G} e2 G | A2 z z2 z | z6 | =c2 z z A B | =c2 c e2 c | B2 z z2 B | %25
w: dass|es _ ver-|lockt _ den Wan- ders-|mann||Ach! wer wie|ich so e- lend|ist giebt|
 (^c2 B) z2 B | ^A2 A =Ac B | G2 z z2 G | A2 A ^A2 A | B3- B2 B | ^B3- B2 B | c3- c2 A | %32
w: gern _ sich|hin der bun- * ten|List, die|hin- ter Eis und|Nacht _ und|Graus _ ihm|weist * ein|
 E2 E{F} E^D E | (F3 E2) z | z2 z z2 ^E | F3- F2 G | AG A c2 B | A2 z z2 c | c3- c2 G | %39
w: hel- les, war- * mes|Haus, *|und|ei- * ne|lie- * be See- le|drin nur|Täu- * schung|
 Ac A{G} e2 G | A2 z4 | z6 | z6 | !fermata!z6 |] %44
w: ist _ für mich Ge-|winn!||||
V:2
!p! [Ee] | (.[Ee]2 .[Ee] .[Ee]2 .[Ee]) | (.[Ee]2 .[Ee] .[Ee]2 .[Ee]) | %3
 (.[^E^e]2 .[Ee] .[Ee]2 .[Ee]) | [Ff]2 [Ff] ([Gg]>[Aa][Bb]) | [Aa]2 [Ee] [Ee]2 [Ee] | %6
 [Ee]2 [Ee] [Ee]2 [Ee] | [Ee]2 [Ee] [Ee]2 [Ee] | [Ee]2 [Ee] [Ee]2 [Ee] | %9
 !>![Ff]2 [Ee] [Ee]2 [^E^e] | [Ff]2 [Ff] [Ff]2 [Gg] | [Aa]2 [Ee] [Ee]2 [Ee] | %12
 ([Ee][Gg][Aa])!>(! ([cc']2!>)! [Bb]) | [Aa]2 [Ee] [Ee]2 [Ee] | [Ee]2 [Ee] [Ee]2 [Ee] | %15
 [Ee]2 [Ee] [Ee]2 [Ee] | [Ee]2 [Ee] [Ee]2 [Ee] | !>![Ff]2 [Ee] [Ee]2 [^E^e] | %18
 [Ff]2 [Ff] [Ff]2 [Gg] | [Aa]2 [Ee] [Ee]2 [Ee] | ([Ee][cc'][Aa]) ([ee']2 [Gg]) | %21
 [Aa]2 [Ee] [Ee]2 [Ee] | [Ee]2 [Ee] [Ee]2 [Ee] | [Ee]2 [Ee] [Ee]2 [Ee] | %24
 [Ee]2 [Ee] ([Ee][Ff][Gg]) | [Gg]2 [Gg] ([Gg][Aa][Bb]) | [cc']2 [cc'] [^d^d']2 [dd'] | %27
 [ee']2 [Ee] [Ee]2 [Ee] | [Ee]2 [Ee] [Ee]2 [Ee] |"_cresc." [Ee]2 [Ee] [Ee]2 [Ee] | %30
!>(! [Ee]2 [Ee]!>)! [Ee]2 [Ee] |!p! [Ee]2 [Ee] [Ee]2 [Ee] | [Ee]2 [Ee] [Ee]2 [Ee] | %33
 [Ee]2 [Ee] [Ee]2 [Ee] | !>![Ff]2 [Ee] [Ee]2 !>![^E^e] | [Ff]2 [Ff] [Ff]2 [Gg] | %36
 [Aa]2 [Ee] [Ee]2 [Ee] |!<(! ([Ee][Gg][Aa])!<)!!>(! ([cc']2 [Bb])!>)! | [Aa]2 [Ff] [Ff]2 [Gg] | %39
 [Aa]2 [Ee] [Ee]2 [Ee] |!<(! ([Ee][cc'][Aa])!<)!!>(! ([ee']2 [Gg])!>)! | [Aa]2 [Ee] [Ee]2 [Ee] | %42
"_dim." [Ee]2 [Ee] [Ee]2 [Ee] | !fermata![Aca]6 |] %44
V:3
 z | .A,,.[C,E,].[E,A,] !>![A,C]2 z | .A,,.[C,E,].[E,A,] !>![A,C]2 z | %3
 .G,,.[C,^E,].[E,B,] !>![B,C]2 z | .F,,.[C,F,].[F,A,] .E,,.[E,B,].[G,D] | %5
 .A,,.[C,E,].[E,A,] !>![A,C]2 z | .A,,.[C,E,].[E,A,] !>![A,C]2 z | A,,[C,E,][E,A,] !>![A,C]2 z | %8
 G,,[D,E,][E,B,] !>![B,D]2 z | G,,[D,E,][E,B,] !>![B,D]2 [C,G,B,] | F,,[C,F,][F,A,] [A,C]2 z | %11
 .E,,.[C,E,].[E,A,] .E,,.[D,E,].[E,G,] | .A,,.[C,E,].[E,A,] .E,,.[D,E,].[E,G,] | %13
 .A,,.[C,E,].[E,A,] !>![A,C]2 z | .A,,.[C,E,].[E,A,] !>![A,C]2 z | .A,,.[C,E,].[E,A,] !>![A,C]2 z | %16
 .G,,.[D,E,].[E,B,] !>![B,D]2 z | G,,[D,E,][E,B,] [B,D]2 !>![C,G,B,] | F,,[C,F,][F,A,] [A,C]2 z | %19
 E,,[C,E,][E,A,] E,,[D,E,][E,G,] | A,,[C,E,][E,A,] E,,[D,E,][E,B,] | A,,[C,E,][E,A,] [A,C]2 z | %22
 A,,[=C,E,][E,A,] [A,=C]2 z | A,,[=C,E,][E,A,] [A,=C]2 z | .E,,.[B,,E,].[E,G,] !>![G,B,]2 z | %25
 B,,[E,G,][G,B,] [B,E]2 z | B,,[F,C][CE] B,,[F,A,][A,B,] | E,,[B,,E,][E,G,] [G,B,]2 [E,G,] | %28
 [E,F,A,]2 [E,F,A,] [E,^^F,^A,]2 [E,F,A,] | [E,G,B,]2 [E,G,B,] [E,G,B,]2 [E,G,B,] | %30
 [E,G,^B,]2 [E,G,B,] [E,G,B,]2 [E,G,B,] | .A,,.[C,E,].[E,A,] [A,C]2 z | A,,[C,E,][E,A,] [A,C]2 z | %33
 G,,[D,E,][E,B,] [B,D]2 z | G,,[D,E,][E,B,] [B,D]2 [C,G,B,] | F,,[C,F,][F,A,] [A,C]2 z | %36
 E,,[C,E,][E,A,] E,,[D,E,][E,G,] | A,,[C,E,][E,A,] G,,[C,^E,][E,B,] | F,,[C,F,][F,A,] [A,C]2 z | %39
 E,,[C,E,][E,A,] E,,[D,E,][E,B,] | A,,[C,E,][E,A,] E,,[D,E,][E,B,] | %41
 .A,,.[C,E,].[E,A,] !>![A,C]2 z | A,,[C,E,][E,A,] [A,C]2 z | !fermata![A,E]6 |] %44

